X:1
T:Title
%%score { ( 1 3 ) | 2 }
L:1/8
Q:1/4=100
M:3/4
K:Ab
V:1 treble nm="Grand Piano"
V:3 treble 
V:2 bass 
V:1
 [Ec]2 [DB]2 [CA]2 | [Fd]4 [Ec]2 | [DB]3 [DF] [=DB][FA] | G6 | B2 c2 d2 | c4 [CEA]2 | %6
w: Robert~Lowry * *||||||
 [EG]3 [FA] [EG][=DF] | E6 | B2 A2 G2 | A4 A2 | [Fd]3 [Gc] [FB][FA] | B6[K:bass] | %12
w: ||||||
 [Ee]2 [Ed]2 [Ec]2 | [A,DF]4 [DFB]2 | %14
w: ||
 [CEA]3 [B,DG] [A,DF][B,DG][Q:1/4=97][Q:1/4=94][Q:1/4=91][Q:1/4=88][Q:1/4=84][Q:1/4=81][Q:1/4=78] | %15
w: |
 [A,CA]6 |] %16
w: |
V:2
 [A,,A,]2 [A,,A,]2 [A,,A,]2 | [A,,A,]4 [A,,A,]2 | [D,F,]3 [D,A,] [B,,B,][B,,B,] | [E,B,E]6 | %4
 [E,G,E]2 [E,A,E]2 [E,B,E]2 | [A,E]4 A,,2 | [B,,B,]3 [B,,B,] [B,,B,][B,,B,] | [E,G,]6 | %8
 [E,DE]2 [E,CE]2 [=E,B,E]2 | [F,A,C]4 [F,A,C]2 | [B,,B,]3 [C,=A,] [D,B,][=D,B,] | [E,G,E]6 | %12
 [C,A,]2 [B,,G,]2 [A,,A,]2 | D,4 B,,2 | E,3 E, E,E, | A,,6 |] %16
V:3
 x6 | x6 | x6 | x6 | x6 | x6 | x6 | x6 | x6 | x6 | x6 | z2 z2[K:bass] D,2 | x6 | x6 | x6 | x6 |] %16

